!!!!SEGMENT: pl-kk--kk-i-386--003-007_anonim--missa-3tia-agnus.krn
!!!cenid: 18xx:4522
!!!COM: Anonim
!!!COM-rismID: pe30004985
!!!CDT:
!!!CNT:
!!!OPR: Missa 3tia
!!!OTL: Agnus
!!!OMV: 007
!!!PDT:
!!!AGN: Sacred
!!!YEC: Copyright 2022 Narodowy Instytut Fryderyka Chopina (https://polishscores.org)
!!!YEM: License CC-BY-4.0 (https://creativecommons.org/licenses/by/4.0)
!!!SMS-siglum: PL-Kk
!!!SMS-shelfmark: Kk.I.386
!!!SMS-variant:
!!!SMS-altvar:
!!!SMS-shelfwork: 003-007 M
!!!NIFC-rismSourceID: 1001218240
!!!NIFC-rismChildID: 1001218244
!!!NIFC-islandoraID: pl-kk:16060
!!!URL-pdf-islandora: https://repozytorium.nifc.pl/islandora/object/pl-kk%3A16060/datastream/PDF/view
!!!URL-scan: https://polish.musicsources.pl/pl/lokalizacje/galeria/rekopisy/7134/3 @EN{Scan on Polish Music Sources Website} @PL{Skany w portalu Dziedzictwo Muzyki Polskiej w otwartym dostępie}
!!!IIIF:
!!!ONB-nifc: UWAGA: Części Missy 3tia: Kyrie, Gloria, Graduale, Offertorium, Sanctus, Benedictus, Agnus. Zakres skanów: S -9-11, A – 19-21, T – 29-31, B – 39-41
!!!AIN: 1 alto 1 bass 1 soprn 1 tenor
!!!key:
**kern	**text	**kern	**text	**kern	**text	**kern	**text
*part4	*part4	*part3	*part3	*part2	*part2	*part1	*part1
*staff4	*staff4	*staff3	*staff3	*staff2	*staff2	*staff1	*staff1
*I"Basso.	*	*I"Tenore.	*	*I"Alto.	*	*I"Soprano.	*
*I'B	*	*I'T	*	*I'A	*	*I'S	*
*Ibass	*	*Itenor	*	*Ialto	*	*Isoprn	*
*ICvox	*	*ICvox	*	*ICvox	*	*ICvox	*
*clefF4	*	*clefC4	*	*clefC3	*	*clefC1	*
*k[b-]	*	*k[b-]	*	*k[b-]	*	*k[b-]	*
*F:	*	*F:	*	*F:	*	*F:	*
*M3/4	*	*M3/4	*	*M3/4	*	*M3/4	*
=1	=1	=1	=1	=1	=1	=1	=1
!	!	!LO:TX:a:t=in F.	!	!LO:TX:a:t=in F.	!	!LO:TX:a:t=in F.	!
*2\right	*	*	*	*2\right	*	*	*
!LO:TX:a:t=in F.	!	!	!	!	!	!	!
2F\	A-	4A/	A-	2f\	A-	(4f/	A-
.	.	4F/	.	.	.	4a/)	.
4F\	-gnus	4A/	-gnus	4f\	-gnus	4cc\	-gnus
=2	=2	=2	=2	=2	=2	=2	=2
4E\	De-	4c\	De-	4g\	De-	8.cc\L	De-
.	.	.	.	.	.	16b-\Jk	.
4F\	-i	4c\	-i	4f\	-i	4a\	-i
4C/	qui	4B-\	qui	4e\	qui	4g\	qui
=3	=3	=3	=3	=3	=3	=3	=3
4D/	tol-	4A\	tol-	4f\	tol-	4f/	tol-
8D/	-lis	8A\	-lis	8f\	-lis	8f/	-lis
8C/	pec-	8c\	pec-	8e\	pec-	8g/	pec-
8F\	-ca-	8c\	-ca-	8f\	-ca-	8a\	-ca-
8BB-/	-ta	8d\	-ta	8f\	-ta	8b-\	-ta
=4	=4	=4	=4	=4	=4	=4	=4
4C/	mun-	4c\	mun-	8.f\L	mun-	8.a\L	mun-
.	.	.	.	16g\Jk	.	16b-\Jk	.
4C/	-di	4c\	-di	4e\	-di	4g\	-di
8C#X/	mi-	8B-\	mi-	8.e\	mi-	8.g\	mi-
8C#/	-se-	8B-\	-se-	.	.	.	.
.	.	.	.	16e\	-se-	16g\	-se-
!LO:LB:g=original	!	!	!	!LO:LB:g=original	!	!LO:LB:g=original	!
=5	=5	=5	=5	=5	=5	=5	=5
4D\	-re-	4A\	-re-	8.e\L	-re-	8.g/L	-re-
.	.	.	.	16d\Jk	.	16f/Jk	.
!	!	!LO:LB:g=original	!	!	!	!	!
4D\	-re,	4A/	-re	4d\	-re	4f/	-re,
8.F\	mi-	8.F/	mi-	8.f\	mi-	8.f/	mi-
16E\	-se-	16E/	-se-	16e\	-se-	16e/	-se-
=6	=6	=6	=6	=6	=6	=6	=6
4.F\	-re-	4.F/	-re-	4.f\	-re-	4.f/	-re-
8G\	.	8G/	.	8g\	.	8g/	.
8G#X\L	-re	8G#X/L	-re	8g#X\L	-re	8g#X/L	-re
8A\J	.	8A/J	.	8a\J	.	8a/J	.
=7	=7	=7	=7	=7	=7	=7	=7
2F\	no-	2F/	no-	2f\	no-	2f/	no-
8.E\L	.	8.E/L	.	8.e\L	.	8.e/L	.
16D\Jk	.	16D/Jk	.	16d\Jk	.	16d/Jk	.
=8	=8	=8	=8	=8	=8	=8	=8
2D\	-bis,	2D/	-bis,	2d\	-bis,	2d/	-bis,
4r	.	4r	.	4r	.	4r	.
=9	=9	=9	=9	=9	=9	=9	=9
2G\	A-	4B-\	A-	2g\	A-	(4g\	A-
.	.	4G/	.	.	.	4b-\)	.
4G\	-gnus	4B-\	-gnus	4g\	-gnus	4dd\	-gnus
=10	=10	=10	=10	=10	=10	=10	=10
4F#X\	De-	4d\	De-	4a\	De-	8.dd\L	De-
.	.	.	.	.	.	16cc\Jk	.
4G\	-i	4d\	-i	4g\	-i	4b-\	-i
4D\	qui	4c\	qui	4f#X\	qui	4a\	qui
!LO:LB:g=original	!	!	!	!LO:LB:g=original	!	!LO:LB:g=original	!
=11	=11	=11	=11	=11	=11	=11	=11
4E-X\	tol-	4B-\	tol-	4g\	tol-	4g\	tol-
!	!	!LO:LB:g=original	!	!	!	!	!
8E-\	-lis	8B-\	-lis	8g\	-lis	8g\	-lis
8D\	pec-	8d\	pec-	8f#X\	pec-	8a\	pec-
8G\	-ca-	8d\	-ca-	8g\	-ca-	8b-\	-ca-
8C/	-ta	8e\	-ta	8g\	-ta	8cc\	-ta
=12	=12	=12	=12	=12	=12	=12	=12
4D\	mun-	4d\	mun-	8.g\L	mun-	8.b-\L	mun-
.	.	.	.	16a\Jk	.	16cc\Jk	.
4D\	-di	4d\	-di	4f#X\	-di	4a\	-di,
8D#X\	mi-	8.c\	mi-	8.f#\	mi-	8.a\	mi-
8D#\	-se-	.	.	.	.	.	.
.	.	16c\	-se-	16f#\	-se-	16a\	-se-
=13	=13	=13	=13	=13	=13	=13	=13
4E\	-re-	4Bn\	-re-	8.f#X\L	-re-	8.a\L	-re-
.	.	.	.	16e\Jk	.	16g\Jk	.
4E\	-re	4B\	-re	4e\	-re	4g\	-re
8G\	mi-	8.G/	mi-	8.g\	mi-	8.g/	mi-
8F#X\	-se-	.	.	.	.	.	.
.	.	16F#X/	-se-	16f#X\	-se-	16f#X/	-se-
=14	=14	=14	=14	=14	=14	=14	=14
4.G\	-re-	4.G/	-re-	4.g\	-re-	4.g\	-re-
8A\	.	8A/	.	8a\	.	8a\	.
8A#X\L	-re	8A#X\L	-re	8a#X\L	-re	8a#X\L	-re
8Bn\J	.	8Bn\J	.	8bn\J	.	8b-\J	.
!LO:LB:g=original	!	!	!	!	!	!	!
=15	=15	=15	=15	=15	=15	=15	=15
2G\	no-	2G/	no-	2g\	no-	2g/	no-
8.F#X\L	.	8.F#X/L	.	8.f#X\L	.	8.f#X/L	.
16E\Jk	.	16E/Jk	.	16e\Jk	.	16e/Jk	.
!	!	!LO:LB:g=original	!	!LO:LB:g=original	!	!LO:LB:g=original	!
=16	=16	=16	=16	=16	=16	=16	=16
2E\	-bis	2E/	-bis,	2e\	-bis,	2e/	-bis,
4r	.	4r	.	4r	.	4r	.
=17	=17	=17	=17	=17	=17	=17	=17
*	*	*	*	*	*	*2\right	*
4C\	A-	2G/	A-	2e\	A-	2cc\	A-
4E\	.	.	.	.	.	.	.
4G\	-gnus	4G/	-gnus	4e\	-gnus	4cc\	-gnus
=18	=18	=18	=18	=18	=18	=18	=18
4BBn/	De-	4G/	De-	8.f\L	De-	4dd\	De-
.	.	.	.	16g\Jk	.	.	.
4C/	-i	4G/	-i	4e\	-i	4cc\	-i
4r	.	4r	.	4r	.	4r	.
=19	=19	=19	=19	=19	=19	=19	=19
2AA/	A-	4A\	A-	2e\	A-	2cc\	A-
.	.	4c\	.	.	.	.	.
4AA/	-gnus	4e\	-gnus	4e\	-gnus	4cc\	-gnus
=20	=20	=20	=20	=20	=20	=20	=20
4GG#X/	De-	4Bn\	De-	4e\	De-	8.dd\L	De-
.	.	.	.	.	.	16ee\Jk	.
4AA/	-i	4c\	-i	4e\	-i	4cc\	-i
4BB-X/	qui	4c\	qui	4g\	qui	4ee\	qui
=21	=21	=21	=21	=21	=21	=21	=21
4AA/	tol-	4c\	tol-	4f\	tol-	4ff\	tol-
!LO:LB:g=original	!	!	!	!	!	!	!
8AA/	-lis	8c\	-lis	8f\	-lis	8ff\	-lis
8AA/	pec-	8c\	pec-	8f\	pec-	8cc\	pec-
8AA/	-ca-	8B-\	-ca-	8f\	-ca-	8dd\	-ca-
8AA/	-ta	8d\	-ta	8f\	-ta	8b-\	-ta
!	!	!LO:LB:g=original	!	!LO:LB:g=original	!	!	!
=22	=22	=22	=22	=22	=22	=22	=22
2.C/	mun-	2c\	mun-	2f\	mun-	2a\	mun-
!	!	!	!	!	!	!LO:LB:g=original	!
.	.	8.B-\L	.	8.e\L	.	8.g\L	.
.	.	16A\Jk	.	16f\Jk	.	16f\Jk	.
=23	=23	=23	=23	=23	=23	=23	=23
2F\	-di	2A\	-di	2f\	-di	2f/	-di
8.F\	do-	8.F/	do-	8.f\	do-	8.f/	do-
16E\	-na	16E/	-na	16e\	-na	16e/	-na
=24	=24	=24	=24	=24	=24	=24	=24
2D/	no-	2D/	no-	2d\	no-	2d/	no-
4C/	-bis	4E/	-bis	4c\	-bis	4e/	-bis
=25	=25	=25	=25	=25	=25	=25	=25
2.BB-/	pa-	2.D/	pa-	2.d\	pa-	2f/	pa-
.	.	.	.	.	.	4g/	.
=26	=26	=26	=26	=26	=26	=26	=26
2.AA;/	-cem.	2.E;/	-cem.	2.c#X;\	-cem	2.a;\	-cem.
=27||	=27||	=27||	=27||	=27||	=27||	=27||	=27||
*M2/2	*	*M2/2	*	*M2/2	*	*M2/2	*
*met(c|)	*	*met(c|)	*	*met(c|)	*	*met(c|)	*
!LO:TX:a:t=2	!	!	!	!	!	!	!
0r	.	2r	.	1f	Do-	1a	Do-
.	.	[2d\	Do-	.	.	.	.
=28	=28	=28	=28	=28	=28	=28	=28
.	.	2d\]	.	1g	-na	1b-	-na
.	.	2c#X\	-na	.	.	.	.
!LO:LB:g=original	!	!LO:LB:g=original	!	!	!	!	!
=29	=29	=29	=29	=29	=29	=29	=29
1D	Do-	2d\	no-	1f	no-	2a\	no-
.	.	2A\	-bis	.	.	2dd\	.
!	!	!	!	!LO:LB:g=original	!	!	!
=30	=30	=30	=30	=30	=30	=30	=30
1E	-na	1G	pa-	1g	-bis	2dd\	.
.	.	.	.	.	.	2cc#X\	-bis
!	!	!	!	!	!	!LO:LB:g=original	!
=31	=31	=31	=31	=31	=31	=31	=31
2F\	no-	1A	.	2f\	pa-	2dd\	pa-
2D\	-bis	.	.	2a\	.	2ff\	.
=32	=32	=32	=32	=32	=32	=32	=32
2D\	do-	2B-\	.	1g	-cem	1ee	.
2C#X/	-na	2A\	.	.	.	.	.
=33	=33	=33	=33	=33	=33	=33	=33
1D	no-	1A	-cem	2f\	do-	2ee\	.
.	.	.	.	2f#X\	.	2dd\	.
=34	=34	=34	=34	=34	=34	=34	=34
2D/	.	2B-\	do-	2g\	-na-	1dd	-cem,
2C/	-bis	2F#X/	-na	2a\	.	.	.
=35	=35	=35	=35	=35	=35	=35	=35
2BB-/	pa-	2G/	no-	1g	-na	2dd\	do-
2GG/	.	[2d\	.	.	.	2b-\	-na
=36	=36	=36	=36	=36	=36	=36	=36
1AA	-cem	2d\]	.	2f\	no-	1a	pa-
.	.	2c#X\	-bis	2e\	.	.	.
=37	=37	=37	=37	=37	=37	=37	=37
2D\	do-	2d\	pa-	2f\	.	2a\	-cem
!	!	!LO:LB:g=original	!	!	!	!	!
2C\	-na	2e-X\	.	2e-X\	-bis	2a\	do-
!LO:LB:g=original	!	!	!	!LO:LB:g=original	!	!	!
=38	=38	=38	=38	=38	=38	=38	=38
2BB-/	no-	2d\	.	1f	pa-	2b-\	.
2AA/	-bis	2c\	.	.	.	2cc\	-na
=39	=39	=39	=39	=39	=39	=39	=39
2GG/	pa-	1B-	-cem,	4f\	.	2dd\	pa-
.	.	.	.	8en\L	.	.	.
.	.	.	.	8d\J	.	.	.
2C/	.	.	.	2e\	.	2cc\	.
!	!	!	!	!	!	!LO:LB:g=original	!
=40	=40	=40	=40	=40	=40	=40	=40
2FF/	-cem	2A\	do-	1f	-cem	2cc\	-cem
2F\	do-	2A\	-na	.	.	2r	.
=41	=41	=41	=41	=41	=41	=41	=41
!	!	!	!	!	!	!LO:TX:a:t=2	!
2G\	.	2B-\	no-	1f	Do-	0r	.
4A\	.	4c\	.	.	.	.	.
4G\	-na	4B-\	.	.	.	.	.
=42	=42	=42	=42	=42	=42	=42	=42
2F\	no-	2A\	.	2f\	.	.	.
2E\	-bis	2c#X\	-bis	2g\	-na	.	.
=43	=43	=43	=43	=43	=43	=43	=43
2D\	pa-	1d	pa-	2f\	no-	1dd	Do-
4E\	.	.	.	4g\	.	.	.
4F\	.	.	.	4a\	.	.	.
=44	=44	=44	=44	=44	=44	=44	=44
2G\	.	2d\	-cem	2b-\	.	1dd	.
2F\	-cem	2r	.	2a\	.	.	.
!LO:LB:g=original	!	!	!	!	!	!	!
=45	=45	=45	=45	=45	=45	=45	=45
!	!	!LO:TX:a:t=1.	!	!	!	!	!
1E	pa-	1r	.	1g	-bis	2dd\	.
.	.	.	.	.	.	2cc#X\	-na
!	!	!LO:LB:g=original	!	!LO:LB:g=original	!	!	!
=46	=46	=46	=46	=46	=46	=46	=46
1D	.	1A	do-	2f\	pa-	2dd\	no-
.	.	.	.	4g\	.	4ee\	.
.	.	.	.	4a\	.	4ff\	-bis
=47	=47	=47	=47	=47	=47	=47	=47
2C#X\	-cem	1A	-na	2e\	.	2gg\	pa-
2D\	do-	.	.	2f\	-cem	2ff\	.
=48	=48	=48	=48	=48	=48	=48	=48
2BB-/	.	2d\	do-	1g	Do-	2ff\	.
2Cn/	-na	2c\	.	.	.	2ee\	.
=49	=49	=49	=49	=49	=49	=49	=49
2AA/	no-	2c\	-na	1f	-na	2ee\	.
2BB-/	-bis	2B-\	.	.	.	2dd\	.
!	!	!	!	!	!	!LO:LB:g=original	!
=50	=50	=50	=50	=50	=50	=50	=50
2GG/	pa-	2B-\	no	1e	no-	2dd\	.
2AA/	-cem	2A\	.	.	.	2cc#X\	.
=51	=51	=51	=51	=51	=51	=51	=51
2D\	do-	1A	pa-	2f\	.	1dd	-cem,
2C/	-na	.	.	2f#X\	-bis	.	.
=52	=52	=52	=52	=52	=52	=52	=52
2BB-/	no-	2B-\	-cem	2g\	pa-	2dd\	do-
2AA/	-bis	2d\	no-	2f#X\	-cem	2ccn\	-na
!LO:LB:g=original	!	!	!	!	!	!	!
=53	=53	=53	=53	=53	=53	=53	=53
2GG/	pa-	2d\	.	2g\	do-	2b-\	no-
2GG#X/	.	2Bn\	-bis	2fn\	-na	2dd\	-bis
!	!	!	!	!LO:LB:g=original	!	!	!
=54	=54	=54	=54	=54	=54	=54	=54
1AA	.	2.A/	pa-	1e	pa-	4dd\	pa-
.	.	.	.	.	.	8cc#X\L	.
.	.	.	.	.	.	8bn\J	.
.	.	.	.	.	.	2cc#\	.
.	.	4G/	.	.	.	.	.
!	!	!LO:LB:g=original	!	!	!	!	!
=55	=55	=55	=55	=55	=55	=55	=55
1BB-;	-cem.	1F;	-cem,	1d;	-cem.	1dd;	-cem
=56||	=56||	=56||	=56||	=56||	=56||	=56||	=56||
2r	.	2r	.	2r	.	2r	.
2B-\	do-	2B-\	do-	2f\	do-	2dd\	do-
=57	=57	=57	=57	=57	=57	=57	=57
2B-\	.	1c	-na	1f	-na	2.ff\	.
2A\	-na	.	.	.	.	.	.
.	.	.	.	.	.	4ee-X\	-na
=58	=58	=58	=58	=58	=58	=58	=58
2B-\	no-	2B-\	no-	2f\	no-	2dd\	no-
2G\	.	2B-\	-bis	2e\	.	2cc#X\	.
!	!	!	!	!	!	!LO:LB:g=original	!
=59	=59	=59	=59	=59	=59	=59	=59
2F\	.	2A\	do-	2f\	-bis	1dd	-bis
2D\	-bis	2F/	-na	2r	.	.	.
=60	=60	=60	=60	=60	=60	=60	=60
2E\	do-	2G/	no-	2r	.	1dd	pa-
2F#X\	-na	2A/	-bis	2a\	pa-	.	.
!LO:LB:g=original	!	!	!	!	!	!	!
=61	=61	=61	=61	=61	=61	=61	=61
1G	pa-	1B-	pa-	4a\	.	1dd	.
.	.	.	.	8g\L	.	.	.
.	.	.	.	8f#X\J	.	.	.
.	.	.	.	2g\	.	.	.
=62	=62	=62	=62	=62	=62	=62	=62
0D	-cem.	0A	-cem.	0f#X	-cem.	0dd	-cem.
==	==	==	==	==	==	==	==
*-	*-	*-	*-	*-	*-	*-	*-
!!!system-decoration: [(s1,s2,s3,s4)]
!!!ENC: Andrzej Gręziak
!!!END: 2023-11-03
!!!ENC: Leszek Kubiak
!!!END: 2024-06-28
